src/pos-icons/ray-start-arrow.svg

<svg height="24" viewBox="0 0 24 24" width="24" xmlns="http://www.w3.org/2000/svg"><path d="m23 12-4 4v-3h-12.17c-.41 1.17-1.52 2-2.83 2a3 3 0 0 1 -3-3 3 3 0 0 1 3-3c1.31 0 2.42.83 2.83 2h12.17v-3z"/></svg>

<?xml version="1.0" encoding="UTF-8"?><!DOCTYPE svg PUBLIC "-//W3C//DTD SVG 1.1//EN" "http://www.w3.org/Graphics/SVG/1.1/DTD/svg11.dtd"><svg xmlns="http://www.w3.org/2000/svg" xmlns:xlink="http://www.w3.org/1999/xlink" version="1.1" id="mdi-ray-start-arrow" width="24" height="24" viewBox="0 0 24 24"><path d="M23,12L19,16V13H6.83C6.42,14.17 5.31,15 4,15A3,3 0 0,1 1,12A3,3 0 0,1 4,9C5.31,9 6.42,9.83 6.83,11H19V8L23,12Z" /></svg>
